dist/img/icons/ic_phone.svg

<svg width="46" height="46" viewBox="0 0 46 46" fill="none" xmlns="http://www.w3.org/2000/svg">
<path d="M35.4395 30.7291L31.5787 26.8678C30.8097 26.1019 29.5362 26.1251 28.7404 26.9212L26.7953 28.8659C26.6724 28.7982 26.5452 28.7275 26.4114 28.6524C25.1831 27.9718 23.5019 27.039 21.7329 25.2686C19.9585 23.4945 19.0248 21.8107 18.3422 20.5816C18.2701 20.4514 18.2011 20.3259 18.1329 20.2066L19.4384 18.9031L20.0802 18.2605C20.8772 17.4633 20.8992 16.1901 20.132 15.422L16.2711 11.5603C15.5039 10.7932 14.2298 10.8164 13.4328 11.6137L12.3447 12.7081L12.3744 12.7376C12.0096 13.2031 11.7047 13.7401 11.4778 14.3191C11.2686 14.8703 11.1384 15.3963 11.0789 15.9233C10.5691 20.1497 12.5004 24.0123 17.7418 29.2537C24.987 36.4984 30.8256 35.9511 31.0775 35.9244C31.6261 35.8588 32.1518 35.7277 32.6861 35.5202C33.2601 35.296 33.7967 34.9915 34.262 34.6274L34.2858 34.6486L35.3881 33.5691C36.1835 32.772 36.2064 31.4985 35.4395 30.7291Z" fill="#FFC59E"/>
</svg>

<svg width="46" height="46" fill="none" xmlns="http://www.w3.org/2000/svg"><path d="M35.44 30.73l-3.861-3.862c-.77-.766-2.043-.743-2.839.053l-1.945 1.945-.384-.214c-1.228-.68-2.91-1.613-4.678-3.383-1.774-1.774-2.708-3.458-3.39-4.687-.073-.13-.142-.256-.21-.375l1.305-1.304.642-.642c.797-.798.82-2.07.052-2.839l-3.86-3.862c-.768-.767-2.042-.744-2.84.054l-1.087 1.094.03.03a6.294 6.294 0 00-.897 1.581 6.554 6.554 0 00-.4 1.604c-.509 4.227 1.422 8.09 6.664 13.33 7.245 7.245 13.084 6.698 13.335 6.671a6.524 6.524 0 001.61-.404 6.27 6.27 0 001.575-.893l.024.022 1.102-1.08c.796-.797.818-2.07.052-2.84z" fill="#FFC59E"/></svg>
